icons/pushpin-2-fill.svg

<svg xmlns="http://www.w3.org/2000/svg" viewBox="0 0 24 24">
    <g>
        <path fill="none" d="M0 0h24v24H0z"/>
        <path d="M18 3v2h-1v6l2 3v2h-6v7h-2v-7H5v-2l2-3V5H6V3z"/>
    </g>
</svg>

<svg viewBox="0 0 24 24" fill="currentColor" xmlns="http://www.w3.org/2000/svg"><path d="M18 3V5H17V11L19 14V16H13V23H11V16H5V14L7 11V5H6V3H18Z"/></svg>
